web/ui/src/components/workflow/workflow-editor/svgs/network.svg

<svg height="56" viewBox="0 0 56 56" width="56" xmlns="http://www.w3.org/2000/svg" xmlns:xlink="http://www.w3.org/1999/xlink"><defs><path id="a" d="m.14659686 27.9987982c0 15.3834461 12.46973584 27.8546049 27.85260194 27.8546049s27.8542043-12.4703576 27.8542043-27.8538037c0-15.3826448-12.470537-27.85300254-27.8542043-27.85300254-15.3820649-.00080115-27.85260194 12.46955654-27.85260194 27.85220134z"/><linearGradient id="b" x1="124.828497%" x2="32.58991%" y1="50%" y2="24.044755%"><stop offset="0" stop-color="#edf6ff"/><stop offset="1" stop-color="#65a4e2"/></linearGradient><mask id="c" fill="#fff"><use fill="#fff" fill-rule="evenodd" xlink:href="#a"/></mask></defs><g fill="none" fill-rule="nonzero"><path d="m0 0h56v56h-56z" fill="#000" opacity="0"/><use fill="#a4bbd2" opacity=".075223" xlink:href="#a"/><path d="m.14659686 48.9127859c0 5.2904566 12.53536604 9.5793607 27.99919454 9.5793607 15.4638286 0 28.0008055-4.2886285 28.0008055-9.5790851 0-5.2901811-12.5361715-9.5788096-28.0008055-9.5788096-15.4630231-.0002756-27.99919454 4.288353-27.99919454 9.578534z" fill="#a5d2ff" mask="url(#c)" opacity=".1"/><g opacity=".610806" transform="matrix(-1 0 0 1 47.157895 9.431579)"><path d="m0 0h37.726316v37.726316h-37.726316z" fill="#000" opacity="0"/><path d="m25.6140163 11.2712961c5.6033948 5.7750618 8.0633779 12.4524067 5.4937187 15.0353567l-.0374155.0369077-.0323851.0310394c-.0099138.0121057-.0211127.0233995-.0323851.0347302-3.8874614 3.9075681-9.7354702 4.7674441-14.8717043 2.6930826l1.3574575 4.7839419c.1753642.6179091-.1807618 1.2615059-.7954547 1.4375557-.103177.0295262-.2099524.0445108-.3172786.0445108l-6.85356271-.0012549c-.29307577.0003499-.57529855-.1114314-.78935947-.3126453l-.0290805-.0282344c-.20947511-.2105586-.33905226-.5013914-.33912569-.8226731 0-.1077706.01487071-.2150613.04424496-.318772l1.64998821-5.824223.7195956-2.5402108-.1426487-.1451211c-5.64646472-5.8473272-5.96807601-14.8076361-.68067471-20.12242182l.03275228-.03030124.01784483-.01930274c.0167433-.01808478.0341476-.03554213.0515886-.0530733 2.5696959-2.58298687 9.2126452-.11028027 14.9579543 5.5220963l-8.4017691 7.3000889-.0302922.027201c-.4856298.450385-.531013 1.2103149-.0955765 1.716652.0194604.0226244.0397287.0445476.0608047.0656957.4804158.4829375 1.2592006.4830852 1.7394695.0003322l.0309531-.0322943.0298149-.0334015 7.2625257-8.4452247z" fill="#edf6ff" stroke="#b5daff" stroke-width=".5"/><path d="m26.6998716 8.67410525c-.2499301-.38306753-.2068185-.90135687.1293712-1.23754653.385737-.38577343 1.0112386-.38562716 1.3971218.0002194.3858833.38588312.385993 1.01142114.000256 1.397158-.3361897.33615309-.8544426.37926465-1.2375103.12937122l-9.1011837 10.52905496 7.1635036-8.2871811c5.5802598 5.7216233 8.0300863 12.3371805 5.4710365 14.8962296-2.6037336 2.6036964-9.4066578.0222322-15.1948331-5.765905-5.78810209-5.7881372-8.36960347-12.59105966-5.76586983-15.19479263 2.55908633-2.55908563 9.17460863-.10925981 14.89619683 5.47099853l-8.3670804 7.2325388 10.6089548-9.17014525z" fill="url(#b)" opacity=".395326"/><path d="m28.3039007 7.3592087c.3806618.38062715.38077.99764495.0002885 1.37812783-.3316093.33157448-.8428012.37409883-1.2206497.12760911l-9.0453161 10.46445156c-.0191133.0221281-.0390239.0435547-.0596926.0642374-.4717696.4717713-1.2367721.471627-1.7086859-.0003247-.0206795-.020671-.0406022-.0420855-.0597287-.0642013-.436459-.504918-.3811306-1.2679035.1236412-1.7041838l10.464412-9.04524214c-.2464888-.37784991-.2039646-.88907983.1276447-1.22069037.3804815-.38051896.9974609-.38037468 1.3780866.00021641z" fill="#fff"/><path d="m14.8118959 24.8015218 2.5330938 9.0672977c.1746167.6250643-.1803603 1.2762709-.7929637 1.4544873-.1028417.0299248-.2092597.0451143-.3161977.0451143h-6.82987807c-.63693189 0-1.15331865-.5269557-1.15331865-1.1769673 0-.1090511.01485321-.2176167.04412061-.3225223l2.51966741-9.023864c.2549923-.91334 1.067053-1.5477409 1.9976101-1.5606627.9253256-.0128097 1.7441544.6089681 1.9978662 1.517117z" fill="#cddeef"/><g fill="#65a4e2"><path d="m11.7894737 25.3473684c0 .488336.3958745.8842105.8842105.8842105s.8842105-.3958745.8842105-.8842105-.3958745-.8842105-.8842105-.8842105-.8842105.3958745-.8842105.8842105z"/><path d="m33.6 7.95789474c0 3.06186836-2.4573238 5.54980066-5.5074085 5.59927036l-.0925915.0007296v-.6588299c2.7016443 0 4.8968808-2.1682033 4.9405134-4.85945019l.0006566-.08171987zm-1.4957655.07296417c0 2.24401299-1.8009746 4.06742409-4.0363778 4.10368729l-.0678567.0005472v-.6566775c1.8848104 0 3.4163283-1.51251074 3.4470827-3.38998826l.0004743-.05756873zm-1.6781759-.07296417c0 1.34279609-1.0747622 2.43459546-2.411028 2.46202996l-.0515127.0005108v-.65667757c.981514 0 1.7801433-.78305147 1.805243-1.75850945l.0006202-.04735374zm-2.4260586-4.03127036v.65667752c-1.8848104 0-3.4163283 1.51251075-3.4470827 3.38998828l-.0004743.05756873h-.6566775c0-2.26670489 1.8375296-4.10423453 4.1042345-4.10423453zm-.0364821 1.56872964v.65667752c-.981514 0-1.7801433.78305147-1.805243 1.75850945l-.0006202.04735375h-.6566775c0-1.36005212 1.1024886-2.46254072 2.4625407-2.46254072zm.0364821-3.13745928v.65882996c-2.7016443 0-4.8968808 2.16820326-4.9405134 4.85945017l-.0006566.08171987h-.65883c0-3.09280521 2.5071948-5.6 5.6-5.6z"/></g></g></g></svg>

<?xml version="1.0" encoding="UTF-8"?>
<svg width="56px" height="56px" viewBox="0 0 56 56" version="1.1" xmlns="http://www.w3.org/2000/svg" xmlns:xlink="http://www.w3.org/1999/xlink">
    <title>编组 2</title>
    <defs>
        <path d="M0.146596859,27.9987982 C0.146596859,43.3822443 12.6163327,55.8534031 27.9991988,55.8534031 C43.3820649,55.8534031 55.8534031,43.3830455 55.8534031,27.9995994 C55.8534031,12.6169546 43.3828661,0.146596859 27.9991988,0.146596859 C12.6171339,0.145795711 0.146596859,12.6161534 0.146596859,27.9987982 Z" id="path-1"></path>
        <linearGradient x1="124.828497%" y1="50%" x2="32.5899102%" y2="24.0447546%" id="linearGradient-3">
            <stop stop-color="#EDF6FF" offset="0%"></stop>
            <stop stop-color="#65A4E2" offset="100%"></stop>
        </linearGradient>
    </defs>
    <g id="页面-1" stroke="none" stroke-width="1" fill="none" fill-rule="evenodd">
        <g id="建木CI-图形编辑器-工具栏（初始页）" transform="translate(-1161.000000, -900.000000)">
            <g id="编组-3" transform="translate(1161.000000, 900.000000)">
                <rect id="矩形" fill="#000000" fill-rule="nonzero" opacity="0" x="0" y="0" width="56" height="56"></rect>
                <g id="路径备份">
                    <mask id="mask-2" fill="white">
                        <use xlink:href="#path-1"></use>
                    </mask>
                    <use id="蒙版" fill="#A4BBD2" fill-rule="nonzero" opacity="0.0752225654" xlink:href="#path-1"></use>
                    <path d="M0.146596859,48.9127859 C0.146596859,54.2032425 12.6819629,58.4921466 28.1457914,58.4921466 C43.60962,58.4921466 56.1465969,54.2035181 56.1465969,48.9130615 C56.1465969,43.6228804 43.6104254,39.3342519 28.1457914,39.3342519 C12.6827683,39.3339763 0.146596859,43.6226049 0.146596859,48.9127859 Z" fill="#A5D2FF" fill-rule="nonzero" opacity="0.1" mask="url(#mask-2)"></path>
                </g>
                <g id="暂无网络" opacity="0.610805778" transform="translate(28.157895, 28.431579) scale(-1, 1) translate(-28.157895, -28.431579) translate(9.157895, 9.431579)" fill-rule="nonzero">
                    <rect id="矩形" fill="#000000" opacity="0" x="0" y="0" width="37.7263158" height="37.7263158"></rect>
                    <path d="M25.6140163,11.2712961 C31.2174111,17.0463579 33.6773942,23.7237028 31.107735,26.3066528 L31.0703195,26.3435605 L31.0379344,26.3745999 C31.0280206,26.3867056 31.0168217,26.3979994 31.0055493,26.4093301 C27.1180879,30.3168982 21.2700791,31.1767742 16.133845,29.1024127 L17.4913025,33.8863546 C17.6666667,34.5042637 17.3105407,35.1478605 16.6958478,35.3239103 C16.5926708,35.3534365 16.4858954,35.3684211 16.3785692,35.3684211 L9.52500649,35.3671662 C9.23193072,35.3675161 8.94970794,35.2557348 8.73564702,35.0545209 L8.70656652,35.0262865 C8.49709141,34.8157279 8.36751426,34.5248951 8.36744083,34.2036134 C8.36744083,34.0958428 8.38231154,33.9885521 8.41168579,33.8848414 L10.061674,28.0606184 L10.7812696,25.5204076 L10.6386209,25.3752865 C4.99215618,19.5279593 4.67054489,10.5676504 9.95794619,5.25286468 L9.99069847,5.22256344 L10.0085433,5.2032607 C10.0252866,5.18517592 10.0426909,5.16771857 10.0601319,5.1501874 C12.6298278,2.56720053 19.2727771,5.03990713 25.0180862,10.6722837 L16.6163171,17.9723726 L16.5860249,17.9995736 C16.1003951,18.4499586 16.0550119,19.2098885 16.4904484,19.7162256 C16.5099088,19.73885 16.5301771,19.7607732 16.5512531,19.7819213 C17.0316689,20.2648588 17.8104537,20.2650065 18.2907226,19.7822535 L18.3216757,19.7499592 L18.3514906,19.7165577 L25.6140163,11.271333 L25.6140163,11.2712961 Z" id="路径" stroke="#B5DAFF" stroke-width="0.5" fill="#EDF6FF"></path>
                    <path d="M26.6998716,8.67410525 C26.4499415,8.29103772 26.4930531,7.77274838 26.8292428,7.43655872 C27.2149798,7.05078529 27.8404814,7.05093156 28.2263646,7.43677812 C28.6122479,7.82266124 28.6123576,8.44819926 28.2266206,8.83393612 C27.8904309,9.17008921 27.372178,9.21320077 26.9891103,8.96330734 L17.8879266,19.4923623 L25.0514302,11.2051812 C30.63169,16.9268045 33.0815165,23.5423617 30.5224667,26.1014108 C27.9187331,28.7051072 21.1158089,26.123643 15.3276336,20.3355058 C9.53953151,14.5473686 6.95803013,7.74444614 9.56176377,5.14071317 C12.1208501,2.58162754 18.7363724,5.03145336 24.4579606,10.6117117 L16.0908802,17.8442505 L26.699835,8.67410525 L26.6998716,8.67410525 Z" id="路径" fill="url(#linearGradient-3)" opacity="0.395326126"></path>
                    <path d="M28.3039007,7.3592087 C28.6845625,7.73983585 28.6846707,8.35685365 28.3041892,8.73733653 C27.9725799,9.06891101 27.461388,9.11143536 27.0835395,8.86494564 L18.0382234,19.3293972 C18.0191101,19.3515253 17.9991995,19.3729519 17.9785308,19.3936346 C17.5067612,19.8654059 16.7417587,19.8652616 16.2698449,19.3933099 C16.2491654,19.3726389 16.2292427,19.3512244 16.2101162,19.3291086 C15.7736572,18.8241906 15.8289856,18.0612051 16.3337574,17.6249248 L26.7981694,8.57968266 C26.5516806,8.20183275 26.5942048,7.69060283 26.9258141,7.35899229 C27.3062956,6.97847333 27.923275,6.97861761 28.3039007,7.3592087 Z" id="路径" fill="#FFFFFF"></path>
                    <path d="M14.8118959,24.8015218 L17.3449897,33.8688195 C17.5196064,34.4938838 17.1646294,35.1450904 16.552026,35.3233068 C16.4491843,35.3532316 16.3427663,35.3684211 16.2358283,35.3684211 L9.40595023,35.3684211 C8.76901834,35.3684211 8.25263158,34.8414654 8.25263158,34.1914538 C8.25263158,34.0824027 8.26748479,33.9738371 8.29675219,33.8689315 L10.8164196,24.8450675 C11.0714119,23.9317275 11.8834726,23.2973266 12.8140297,23.2844048 C13.7393553,23.2715951 14.5581841,23.8933729 14.8118959,24.8015218 L14.8118959,24.8015218 Z" id="路径" fill="#CDDEEF"></path>
                    <path d="M11.7894737,25.3473684 C11.7894737,25.8357044 12.1853482,26.2315789 12.6736842,26.2315789 C13.1620202,26.2315789 13.5578947,25.8357044 13.5578947,25.3473684 C13.5578947,24.8590324 13.1620202,24.4631579 12.6736842,24.4631579 C12.1853482,24.4631579 11.7894737,24.8590324 11.7894737,25.3473684 Z" id="路径" fill="#65A4E2"></path>
                    <path d="M33.6,7.95789474 C33.6,11.0197631 31.1426762,13.5076954 28.0925915,13.5571651 L28,13.5578947 L28,12.8990648 C30.7016443,12.8990648 32.8968808,10.7308615 32.9405134,8.03961461 L32.94117,7.95789474 L33.6,7.95789474 Z M32.1042345,8.03085891 C32.1042345,10.2748719 30.3032599,12.098283 28.0678567,12.1345462 L28,12.1350934 L28,11.4784159 C29.8848104,11.4784159 31.4163283,9.96590516 31.4470827,8.08842764 L31.447557,8.03085891 L32.1042345,8.03085891 Z M30.4260586,7.95789474 C30.4260586,9.30069083 29.3512964,10.3924902 28.0150306,10.4199247 L27.9635179,10.4204355 L27.9635179,9.76375793 C28.9450319,9.76375793 29.7436612,8.98070646 29.7687609,8.00524848 L29.7693811,7.95789474 L30.4260586,7.95789474 Z M28,3.92662438 L28,4.5833019 C26.1151896,4.5833019 24.5836717,6.09581265 24.5529173,7.97329018 L24.552443,8.03085891 L23.8957655,8.03085891 C23.8957655,5.76415402 25.7332951,3.92662438 28,3.92662438 Z M27.9635179,5.49535402 L27.9635179,6.15203154 C26.9820039,6.15203154 26.1833746,6.93508301 26.1582749,7.91054099 L26.1576547,7.95789474 L25.5009772,7.95789474 C25.5009772,6.59784262 26.6034658,5.49535402 27.9635179,5.49535402 Z M28,2.35789474 L28,3.0167247 C25.2983557,3.0167247 23.1031192,5.18492796 23.0594866,7.87617487 L23.05883,7.95789474 L22.4,7.95789474 C22.4,4.86508953 24.9071948,2.35789474 28,2.35789474 Z" id="形状" fill="#65A4E2"></path>
                </g>
            </g>
        </g>
    </g>
</svg>
